X: 21671
Q: "Slow."
M: 3/4
L: 1/4
K: F	% and Dm
d |\
(cA)c | dde | f>gf | (f>e)d |\
cAf | {f}e2d | cAd | D2E |\
c<AF | A>B (A/G/) | F>GE | D2 |]
(d>e)d | {d}c2G | f2f | {f}e2d |\
(cA)f | {f}e2d | cAd | D2E |\
cAF | A2A/G/ | F>GE | D2 |]


